X: 08102
T: SHELLY'S JIG
C: Bob McQuillen 28 Sept 90
B: Bob's Note Book 8 #102
%R: jig
Z: 2021 John Chambers <jc:trillian.mit.edu>
M: 6/8
L: 1/8
K: D
A \
| Bdf edB | AdB AFE | DFA GAB | Adf ecA |\
| Bdf edB | AdB AFE | DFA GAB | Adc d2 :|
|: e \
| fdf geg | fdf ecA | Bcd Ace | agf efg |\
| fed dfd | Bed cBA | dfa agf | edc d2 :|
%%begintext align
%% Playing for Dudley Laufman years ago in South Amherst
%% brought many nice rewards, including Shelly Ball.
%% Now she's dncing at Dave Kaynor's Greenfidle Dance,
%% and just as much fun to watch on the floor as ever.
%%endtext

%%sep 1 1 500

%%sep 1 1 500

